src/lib/packages/icons/src/assets/line/message-dots-times.svg

<svg width="24" height="24" viewBox="0 0 24 24" fill="none" xmlns="http://www.w3.org/2000/svg">
<path d="M21.75 6V10C21.75 10.414 21.414 10.75 21 10.75C20.586 10.75 20.25 10.414 20.25 10V6C20.25 4.423 19.577 3.75 18 3.75H6C4.423 3.75 3.75 4.423 3.75 6V19.189L5.46997 17.469C5.61097 17.328 5.801 17.249 6 17.249H13C13.414 17.249 13.75 17.585 13.75 17.999C13.75 18.413 13.414 18.749 13 18.749H6.31104L3.53101 21.5291C3.38701 21.6731 3.19598 21.749 3.00098 21.749C2.90398 21.749 2.80711 21.73 2.71411 21.692C2.43411 21.576 2.25098 21.302 2.25098 20.999V5.99902C2.25098 3.58102 3.58298 2.24902 6.00098 2.24902H18.001C20.418 2.25002 21.75 3.582 21.75 6ZM21.53 13.47C21.237 13.177 20.762 13.177 20.469 13.47L18.999 14.9399L17.5291 13.47C17.2361 13.177 16.761 13.177 16.468 13.47C16.175 13.763 16.175 14.238 16.468 14.531L17.938 16.001L16.468 17.4709C16.175 17.7639 16.175 18.239 16.468 18.532C16.614 18.678 16.806 18.752 16.998 18.752C17.19 18.752 17.3821 18.679 17.5281 18.532L18.998 17.062L20.468 18.532C20.614 18.678 20.806 18.752 20.998 18.752C21.19 18.752 21.3821 18.679 21.5281 18.532C21.8211 18.239 21.8211 17.7639 21.5281 17.4709L20.0581 16.001L21.5281 14.531C21.8231 14.237 21.823 13.763 21.53 13.47ZM12.01 9.5C11.458 9.5 11.0149 9.948 11.0149 10.5C11.0149 11.052 11.468 11.5 12.02 11.5C12.573 11.5 13.02 11.052 13.02 10.5C13.02 9.948 12.573 9.5 12.02 9.5H12.01ZM17.02 10.5C17.02 9.948 16.573 9.5 16.02 9.5H16.01C15.458 9.5 15.0149 9.948 15.0149 10.5C15.0149 11.052 15.468 11.5 16.02 11.5C16.572 11.5 17.02 11.052 17.02 10.5ZM8.01001 9.5C7.45801 9.5 7.01489 9.948 7.01489 10.5C7.01489 11.052 7.46802 11.5 8.02002 11.5C8.57302 11.5 9.02002 11.052 9.02002 10.5C9.02002 9.948 8.57302 9.5 8.02002 9.5H8.01001Z" fill="currentColor"/>
</svg>

<svg xmlns="http://www.w3.org/2000/svg" width="24" height="24" fill="none"><path fill="currentColor" d="M21.75 6v4a.75.75 0 0 1-1.5 0V6c0-1.577-.673-2.25-2.25-2.25H6c-1.577 0-2.25.673-2.25 2.25v13.189l1.72-1.72a.749.749 0 0 1 .53-.22h7a.75.75 0 0 1 0 1.5H6.311l-2.78 2.78a.748.748 0 0 1-1.28-.53v-15c0-2.418 1.332-3.75 3.75-3.75h12C20.418 2.25 21.75 3.582 21.75 6Zm-.22 7.47a.75.75 0 0 0-1.061 0l-1.47 1.47-1.47-1.47a.75.75 0 0 0-1.061 1.061l1.47 1.47-1.47 1.47a.75.75 0 0 0 1.06 1.061l1.47-1.47 1.47 1.47a.748.748 0 0 0 1.06 0 .75.75 0 0 0 0-1.061L20.058 16l1.47-1.47a.748.748 0 0 0 .002-1.061ZM12.01 9.5a.996.996 0 0 0-.995 1c0 .552.453 1 1.005 1a1 1 0 1 0 0-2h-.01Zm5.01 1a1 1 0 0 0-1-1h-.01a.996.996 0 0 0-.995 1c0 .552.453 1 1.005 1a1 1 0 0 0 1-1Zm-9.01-1a.996.996 0 0 0-.995 1c0 .552.453 1 1.005 1a1 1 0 1 0 0-2h-.01Z"/></svg>
